; generated by Slic3r 0.9.9-dev on 2013-07-06 at 17:38:23

; layer_height = 0.4
; perimeters = 3
; top_solid_layers = 3
; bottom_solid_layers = 3
; fill_density = 0.4
; perimeter_speed = 30
; infill_speed = 60
; travel_speed = 130
; nozzle_diameter = 0.5
; filament_diameter = 3
; extrusion_multiplier = 1
; perimeters extrusion width = 0.53mm
; infill extrusion width = 0.53mm
; solid infill extrusion width = 0.53mm
; top infill extrusion width = 0.53mm
; first layer extrusion width = 0.70mm

G21 ; set units to millimeters
M107
M104 S200 ; set temperature
G28 ; home all axes
G1 Z5 F5000 ; lift nozzle

M109 S200 ; wait for temperature to be reached
G90 ; use absolute coordinates
G92 E0
M82 ; use absolute distances for extrusion
G1 F1800.000 E-1.00000
G92 E0
G1 Z0.350 F7800.000
G1 X75.200 Y70.740
G1 F1800.000 E1.00000
G1 X75.790 Y70.190 F540.000 E1.02624
G1 X76.220 Y69.870 E1.04368
G1 X76.670 Y69.580 E1.06110
G1 X77.150 Y69.340 E1.07856
G1 X77.640 Y69.130 E1.09590
G1 X78.150 Y68.960 E1.11339
G1 X78.930 Y68.780 E1.13944
G1 X79.460 Y68.710 E1.15683
G1 X80.000 Y68.690 E1.17441
G1 X120.000 Y68.690 E2.47582
G1 X120.540 Y68.710 E2.49340
G1 X121.330 Y68.830 E2.51940
G1 X122.110 Y69.040 E2.54568
G1 X122.850 Y69.340 E2.57166
G1 X123.330 Y69.580 E2.58912
G1 X123.560 Y69.720 E2.59788
G1 X124.210 Y70.190 E2.62398
G1 X124.800 Y70.740 E2.65022
G1 X125.160 Y71.140 E2.66773
G1 X125.480 Y71.570 E2.68517
G1 X125.770 Y72.020 E2.70259
G1 X126.120 Y72.740 E2.72863
G1 X126.310 Y73.240 E2.74604
G1 X126.460 Y73.760 E2.76364
G1 X126.570 Y74.280 E2.78094
G1 X126.640 Y74.810 E2.79833
G1 X126.660 Y75.350 E2.81591
G1 X126.660 Y124.650 E4.41990
G1 X126.640 Y125.190 E4.43748
G1 X126.520 Y125.980 E4.46348
G1 X126.310 Y126.760 E4.48976
G1 X126.010 Y127.500 E4.51574
G1 X125.770 Y127.980 E4.53320
G1 X125.630 Y128.210 E4.54196
G1 X125.160 Y128.860 E4.56805
G1 X124.610 Y129.450 E4.59430
G1 X124.210 Y129.810 E4.61181
G1 X123.780 Y130.130 E4.62925
G1 X123.330 Y130.420 E4.64666
G1 X122.610 Y130.770 E4.67271
G1 X122.110 Y130.960 E4.69011
G1 X121.590 Y131.110 E4.70772
G1 X121.070 Y131.220 E4.72501
G1 X120.540 Y131.290 E4.74241
G1 X120.000 Y131.310 E4.75999
G1 X80.000 Y131.310 E6.06140
G1 X79.460 Y131.290 E6.07898
G1 X78.670 Y131.170 E6.10497
G1 X77.890 Y130.960 E6.13126
G1 X77.150 Y130.660 E6.15724
G1 X76.670 Y130.420 E6.17470
G1 X76.440 Y130.280 E6.18346
G1 X75.790 Y129.810 E6.20955
G1 X75.200 Y129.260 E6.23580
G1 X74.840 Y128.860 E6.25330
G1 X74.520 Y128.430 E6.27074
G1 X74.230 Y127.980 E6.28816
G1 X73.880 Y127.260 E6.31421
G1 X73.690 Y126.760 E6.33161
G1 X73.540 Y126.240 E6.34922
G1 X73.430 Y125.720 E6.36651
G1 X73.360 Y125.190 E6.38390
G1 X73.340 Y124.650 E6.40149
G1 X73.340 Y75.350 E8.00547
G1 X73.360 Y74.810 E8.02305
G1 X73.430 Y74.280 E8.04045
G1 X73.610 Y73.500 E8.06649
G1 X73.780 Y72.990 E8.08398
G1 X73.990 Y72.500 E8.10133
G1 X74.230 Y72.020 E8.11879
G1 X74.370 Y71.790 E8.12755
G1 X74.840 Y71.140 E8.15364
G1 X75.134 Y70.813 E8.16795
G1 F1800.000 E7.16795
G92 E0
G1 X81.643 Y76.993 F7800.000
G1 F1800.000 E1.00000
G1 X118.357 Y76.993 F540.000 E2.19452
G1 X118.357 Y123.007 E3.69161
G1 X81.643 Y123.007 E4.88613
G1 X81.643 Y77.091 E6.38002
G1 X80.986 Y76.336 F7800.000
G1 X119.014 Y76.336 F540.000 E7.61729
G1 X119.014 Y123.664 E9.15714
G1 X80.986 Y123.664 E10.39442
G1 X80.986 Y76.434 E11.93106
G1 X80.329 Y75.679 F7800.000
G1 X119.671 Y75.679 F378.000 E13.21109
G1 X119.671 Y124.321 E14.79370
G1 X80.329 Y124.321 E16.07373
G1 X80.329 Y75.777 E17.65313
G1 X80.898 Y76.007 F7800.000
G1 X117.881 Y77.469
G1 X117.881 Y78.409 F1080.000 E17.68406
G1 X116.941 Y77.469 E17.72780
G1 X116.001 Y77.469 E17.75872
G1 X117.881 Y79.349 E17.84620
G1 X117.881 Y80.289 E17.87712
G1 X115.061 Y77.469 E18.00833
G1 X114.122 Y77.469 E18.03925
G1 X117.881 Y81.228 E18.21420
G1 X117.881 Y82.168 E18.24512
G1 X113.182 Y77.469 E18.46380
G1 X112.242 Y77.469 E18.49472
G1 X117.881 Y83.108 E18.75713
G1 X117.881 Y84.048 E18.78805
G1 X111.302 Y77.469 E19.09420
G1 X110.362 Y77.469 E19.12512
G1 X117.881 Y84.988 E19.47500
G1 X117.881 Y85.927 E19.50592
G1 X109.423 Y77.469 E19.89953
G1 X108.483 Y77.469 E19.93046
G1 X117.881 Y86.867 E20.36780
G1 X117.881 Y87.807 E20.39872
G1 X107.543 Y77.469 E20.87980
G1 X106.603 Y77.469 E20.91073
G1 X117.881 Y88.747 E21.43554
G1 X117.881 Y89.687 E21.46646
G1 X105.663 Y77.469 E22.03501
G1 X104.724 Y77.469 E22.06593
G1 X117.881 Y90.626 E22.67821
G1 X117.881 Y91.566 E22.70914
G1 X103.784 Y77.469 E23.36515
G1 X102.844 Y77.469 E23.39608
G1 X117.881 Y92.506 E24.09582
G1 X117.881 Y93.446 E24.12675
G1 X101.904 Y77.469 E24.87023
G1 X100.964 Y77.469 E24.90115
G1 X117.881 Y94.386 E25.68837
G1 X117.881 Y95.326 E25.71929
G1 X100.024 Y77.469 E26.55024
G1 X99.085 Y77.469 E26.58117
G1 X117.881 Y96.265 E27.45585
G1 X117.881 Y97.205 E27.48677
G1 X98.145 Y77.469 E28.40519
G1 X97.205 Y77.469 E28.43612
G1 X117.881 Y98.145 E29.39827
G1 X117.881 Y99.085 E29.42919
G1 X96.265 Y77.469 E30.43507
G1 X95.325 Y77.469 E30.46600
G1 X117.881 Y100.025 E31.51562
G1 X117.881 Y100.964 E31.54654
G1 X94.386 Y77.469 E32.63989
G1 X93.446 Y77.469 E32.67082
G1 X117.881 Y101.904 E33.80790
G1 X117.881 Y102.844 E33.83883
G1 X92.506 Y77.469 E35.01965
G1 X91.566 Y77.469 E35.05057
G1 X117.881 Y103.784 E36.27513
G1 X117.881 Y104.724 E36.30605
G1 X90.626 Y77.469 E37.57434
G1 X89.687 Y77.469 E37.60526
G1 X117.881 Y105.663 E38.91728
G1 X117.881 Y106.603 E38.94821
G1 X88.747 Y77.469 E40.30396
G1 X87.807 Y77.469 E40.33489
G1 X117.881 Y107.543 E41.73438
G1 X117.881 Y108.483 E41.76530
G1 X86.867 Y77.469 E43.20852
G1 X85.927 Y77.469 E43.23945
G1 X117.881 Y109.423 E44.72640
G1 X117.881 Y110.363 E44.75733
G1 X84.987 Y77.469 E46.28802
G1 X84.048 Y77.469 E46.31894
G1 X117.881 Y111.302 E47.89337
G1 X117.881 Y112.242 E47.92429
G1 X83.108 Y77.469 E49.54245
G1 X82.168 Y77.469 E49.57338
G1 X117.881 Y113.182 E51.23527
G1 X117.881 Y114.122 E51.26619
G1 X82.119 Y78.360 E52.93037
G1 X82.119 Y79.299 E52.96129
G1 X117.881 Y115.062 E54.62547
G1 X117.881 Y116.001 E54.65639
G1 X82.119 Y80.239 E56.32057
G1 X82.119 Y81.179 E56.35150
G1 X117.881 Y116.941 E58.01567
G1 X117.881 Y117.881 E58.04660
G1 X82.119 Y82.119 E59.71077
G1 X82.119 Y83.059 E59.74170
G1 X117.881 Y118.821 E61.40588
G1 X117.881 Y119.761 E61.43680
G1 X82.119 Y83.999 E63.10098
G1 X82.119 Y84.938 E63.13190
G1 X117.881 Y120.700 E64.79608
G1 X117.881 Y121.640 E64.82700
G1 X82.119 Y85.878 E66.49118
G1 X82.119 Y86.818 E66.52210
G1 X117.832 Y122.531 E68.18400
G1 X116.892 Y122.531 E68.21492
G1 X82.119 Y87.758 E69.83309
G1 X82.119 Y88.698 E69.86401
G1 X115.952 Y122.531 E71.43844
G1 X115.013 Y122.531 E71.46936
G1 X82.119 Y89.637 E73.00006
G1 X82.119 Y90.577 E73.03098
G1 X114.073 Y122.531 E74.51794
G1 X113.133 Y122.531 E74.54887
G1 X82.119 Y91.517 E75.99209
G1 X82.119 Y92.457 E76.02302
G1 X112.193 Y122.531 E77.42251
G1 X111.253 Y122.531 E77.45343
G1 X82.119 Y93.397 E78.80919
G1 X82.119 Y94.336 E78.84012
G1 X110.314 Y122.531 E80.15214
G1 X109.374 Y122.531 E80.18307
G1 X82.119 Y95.276 E81.45136
G1 X82.119 Y96.216 E81.48228
G1 X108.434 Y122.531 E82.70684
G1 X107.494 Y122.531 E82.73776
G1 X82.119 Y97.156 E83.91859
G1 X82.119 Y98.096 E83.94951
G1 X106.554 Y122.531 E85.08660
G1 X105.614 Y122.531 E85.11752
G1 X82.119 Y99.036 E86.21088
G1 X82.119 Y99.975 E86.24180
G1 X104.675 Y122.531 E87.29143
G1 X103.735 Y122.531 E87.32235
G1 X82.119 Y100.915 E88.32824
G1 X82.119 Y101.855 E88.35916
G1 X102.795 Y122.531 E89.32132
G1 X101.855 Y122.531 E89.35224
G1 X82.119 Y102.795 E90.27066
G1 X82.119 Y103.735 E90.30159
G1 X100.915 Y122.531 E91.17627
G1 X99.976 Y122.531 E91.20720
G1 X82.119 Y104.674 E92.03815
G1 X82.119 Y105.614 E92.06907
G1 X99.036 Y122.531 E92.85629
G1 X98.096 Y122.531 E92.88722
G1 X82.119 Y106.554 E93.63070
G1 X82.119 Y107.494 E93.66163
G1 X97.156 Y122.531 E94.36138
G1 X96.216 Y122.531 E94.39230
G1 X82.119 Y108.434 E95.04832
G1 X82.119 Y109.373 E95.07924
G1 X95.277 Y122.531 E95.69153
G1 X94.337 Y122.531 E95.72245
G1 X82.119 Y110.313 E96.29100
G1 X82.119 Y111.253 E96.32192
G1 X93.397 Y122.531 E96.84674
G1 X92.457 Y122.531 E96.87766
G1 X82.119 Y112.193 E97.35875
G1 X82.119 Y113.133 E97.38967
G1 X91.517 Y122.531 E97.82702
G1 X90.577 Y122.531 E97.85794
G1 X82.119 Y114.073 E98.25156
G1 X82.119 Y115.012 E98.28248
G1 X89.638 Y122.531 E98.63236
G1 X88.698 Y122.531 E98.66329
G1 X82.119 Y115.952 E98.96943
G1 X82.119 Y116.892 E99.00036
G1 X87.758 Y122.531 E99.26277
G1 X86.818 Y122.531 E99.29369
G1 X82.119 Y117.832 E99.51237
G1 X82.119 Y118.772 E99.54330
G1 X85.878 Y122.531 E99.71824
G1 X84.939 Y122.531 E99.74917
G1 X82.119 Y119.711 E99.88038
G1 X82.119 Y120.651 E99.91130
G1 X83.999 Y122.531 E99.99878
G1 X83.059 Y122.531 E100.02970
G1 X82.119 Y121.591 E100.07345
G1 X82.119 Y122.531 E100.10438
G1 F1800.000 E99.10438
G92 E0
G1 Z0.750 F7800.000
G1 X81.299 Y123.351
G1 F1800.000 E1.00000
G1 X81.299 Y76.649 F1800.000 E2.37328
G1 X118.701 Y76.649 E3.47310
G1 X118.701 Y123.351 E4.84638
G1 X81.377 Y123.351 E5.94390
G1 X80.779 Y123.871 F7800.000
G1 X80.779 Y76.129 F1800.000 E7.34774
G1 X119.221 Y76.129 E8.47811
G1 X119.221 Y123.871 E9.88196
G1 X80.857 Y123.871 E11.01004
G1 X80.260 Y124.390 F7800.000
G1 X80.260 Y75.610 F1260.000 E12.44444
G1 X119.740 Y75.610 E13.60537
G1 X119.740 Y124.390 E15.03978
G1 X80.338 Y124.390 E16.19842
G1 X80.520 Y123.940 F7800.000
G1 X118.324 Y122.974
G1 X117.587 Y122.974 F3600.000 E16.22018
G1 X118.324 Y122.237 E16.25097
G1 X118.324 Y121.499 E16.27273
G1 X116.849 Y122.974 E16.33429
G1 X116.112 Y122.974 E16.35606
G1 X118.324 Y120.762 E16.44839
G1 X118.324 Y120.024 E16.47016
G1 X115.374 Y122.974 E16.59327
G1 X114.637 Y122.974 E16.61503
G1 X118.324 Y119.287 E16.76892
G1 X118.324 Y118.549 E16.79069
G1 X113.899 Y122.974 E16.97535
G1 X113.162 Y122.974 E16.99712
G1 X118.324 Y117.812 E17.21256
G1 X118.324 Y117.074 E17.23432
G1 X112.424 Y122.974 E17.48054
G1 X111.687 Y122.974 E17.50230
G1 X118.324 Y116.337 E17.77930
G1 X118.324 Y115.599 E17.80106
G1 X110.949 Y122.974 E18.10884
G1 X110.212 Y122.974 E18.13060
G1 X118.324 Y114.862 E18.46915
G1 X118.324 Y114.124 E18.49091
G1 X109.474 Y122.974 E18.86024
G1 X108.737 Y122.974 E18.88200
G1 X118.324 Y113.387 E19.28210
G1 X118.324 Y112.649 E19.30387
G1 X107.999 Y122.974 E19.73475
G1 X107.262 Y122.974 E19.75651
G1 X118.324 Y111.912 E20.21816
G1 X118.324 Y111.175 E20.23993
G1 X106.525 Y122.974 E20.73236
G1 X105.787 Y122.974 E20.75412
G1 X118.324 Y110.437 E21.27733
G1 X118.324 Y109.700 E21.29909
G1 X105.050 Y122.974 E21.85308
G1 X104.312 Y122.974 E21.87484
G1 X118.324 Y108.962 E22.45960
G1 X118.324 Y108.225 E22.48137
G1 X103.575 Y122.974 E23.09690
G1 X102.837 Y122.974 E23.11867
G1 X118.324 Y107.487 E23.76498
G1 X118.324 Y106.750 E23.78674
G1 X102.100 Y122.974 E24.46384
G1 X101.362 Y122.974 E24.48560
G1 X118.324 Y106.012 E25.19347
G1 X118.324 Y105.275 E25.21523
G1 X100.625 Y122.974 E25.95387
G1 X99.887 Y122.974 E25.97564
G1 X118.324 Y104.537 E26.74506
G1 X118.324 Y103.800 E26.76682
G1 X99.150 Y122.974 E27.56702
G1 X98.412 Y122.974 E27.58878
G1 X118.324 Y103.062 E28.41975
G1 X118.324 Y102.325 E28.44152
G1 X97.675 Y122.974 E29.30327
G1 X96.937 Y122.974 E29.32503
G1 X118.324 Y101.587 E30.21756
G1 X118.324 Y100.850 E30.23932
G1 X96.200 Y122.974 E31.16262
G1 X95.462 Y122.974 E31.18439
G1 X118.324 Y100.112 E32.13847
G1 X118.324 Y99.375 E32.16023
G1 X94.725 Y122.974 E33.14509
G1 X93.987 Y122.974 E33.16685
G1 X118.324 Y98.637 E34.18248
G1 X118.324 Y97.900 E34.20424
G1 X93.250 Y122.974 E35.25065
G1 X92.513 Y122.974 E35.27242
G1 X118.324 Y97.163 E36.34960
G1 X118.324 Y96.425 E36.37137
G1 X91.775 Y122.974 E37.47933
G1 X91.038 Y122.974 E37.50109
G1 X118.324 Y95.688 E38.63983
G1 X118.324 Y94.950 E38.66159
G1 X90.300 Y122.974 E39.83111
G1 X89.563 Y122.974 E39.85287
G1 X118.324 Y94.213 E41.05316
G1 X118.324 Y93.475 E41.07493
G1 X88.825 Y122.974 E42.30600
G1 X88.088 Y122.974 E42.32776
G1 X118.324 Y92.738 E43.58960
G1 X118.324 Y92.000 E43.61137
G1 X87.350 Y122.974 E44.90399
G1 X86.613 Y122.974 E44.92575
G1 X118.324 Y91.263 E46.24915
G1 X118.324 Y90.525 E46.27091
G1 X85.875 Y122.974 E47.62509
G1 X85.138 Y122.974 E47.64685
G1 X118.324 Y89.788 E49.03180
G1 X118.324 Y89.050 E49.05356
G1 X84.400 Y122.974 E50.46929
G1 X83.663 Y122.974 E50.49105
G1 X118.324 Y88.313 E51.93756
G1 X118.324 Y87.575 E51.95932
G1 X82.925 Y122.974 E53.43660
G1 X82.188 Y122.974 E53.45837
G1 X118.324 Y86.838 E54.96642
G1 X118.324 Y86.100 E54.98819
G1 X81.676 Y122.749 E56.51762
G1 X81.676 Y122.012 E56.53938
G1 X118.324 Y85.363 E58.06882
G1 X118.324 Y84.626 E58.09058
G1 X81.676 Y121.274 E59.62001
G1 X81.676 Y120.537 E59.64178
G1 X118.324 Y83.888 E61.17121
G1 X118.324 Y83.151 E61.19297
G1 X81.676 Y119.799 E62.72241
G1 X81.676 Y119.062 E62.74417
G1 X118.324 Y82.413 E64.27361
G1 X118.324 Y81.676 E64.29537
G1 X81.676 Y118.324 E65.82480
G1 X81.676 Y117.587 E65.84656
G1 X118.324 Y80.938 E67.37600
G1 X118.324 Y80.201 E67.39776
G1 X81.676 Y116.849 E68.92720
G1 X81.676 Y116.112 E68.94896
G1 X118.324 Y79.463 E70.47839
G1 X118.324 Y78.726 E70.50016
G1 X81.676 Y115.374 E72.02959
G1 X81.676 Y114.637 E72.05135
G1 X118.324 Y77.988 E73.58079
G1 X118.324 Y77.251 E73.60255
G1 X81.676 Y113.899 E75.13198
G1 X81.676 Y113.162 E75.15375
G1 X117.812 Y77.026 E76.66180
G1 X117.074 Y77.026 E76.68356
G1 X81.676 Y112.424 E78.16084
G1 X81.676 Y111.687 E78.18260
G1 X116.337 Y77.026 E79.62910
G1 X115.599 Y77.026 E79.65086
G1 X81.676 Y110.949 E81.06658
G1 X81.676 Y110.212 E81.08834
G1 X114.862 Y77.026 E82.47329
G1 X114.125 Y77.026 E82.49505
G1 X81.676 Y109.475 E83.84922
G1 X81.676 Y108.737 E83.87098
G1 X113.387 Y77.026 E85.19438
G1 X112.650 Y77.026 E85.21614
G1 X81.676 Y108.000 E86.50875
G1 X81.676 Y107.262 E86.53052
G1 X111.912 Y77.026 E87.79236
G1 X111.175 Y77.026 E87.81412
G1 X81.676 Y106.525 E89.04518
G1 X81.676 Y105.787 E89.06694
G1 X110.437 Y77.026 E90.26723
G1 X109.700 Y77.026 E90.28899
G1 X81.676 Y105.050 E91.45850
G1 X81.676 Y104.312 E91.48026
G1 X108.962 Y77.026 E92.61900
G1 X108.225 Y77.026 E92.64076
G1 X81.676 Y103.575 E93.74872
G1 X81.676 Y102.837 E93.77048
G1 X107.487 Y77.026 E94.84766
G1 X106.750 Y77.026 E94.86942
G1 X81.676 Y102.100 E95.91583
G1 X81.676 Y101.362 E95.93759
G1 X106.012 Y77.026 E96.95322
G1 X105.275 Y77.026 E96.97498
G1 X81.676 Y100.625 E97.95983
G1 X81.676 Y99.887 E97.98159
G1 X104.537 Y77.026 E98.93567
G1 X103.800 Y77.026 E98.95743
G1 X81.676 Y99.150 E99.88073
G1 X81.676 Y98.412 E99.90249
G1 X103.062 Y77.026 E100.79501
G1 X102.325 Y77.026 E100.81677
G1 X81.676 Y97.675 E101.67852
G1 X81.676 Y96.938 E101.70028
G1 X101.588 Y77.026 E102.53125
G1 X100.850 Y77.026 E102.55301
G1 X81.676 Y96.200 E103.35320
G1 X81.676 Y95.463 E103.37496
G1 X100.113 Y77.026 E104.14438
G1 X99.375 Y77.026 E104.16614
G1 X81.676 Y94.725 E104.90478
G1 X81.676 Y93.988 E104.92654
G1 X98.638 Y77.026 E105.63440
G1 X97.900 Y77.026 E105.65617
G1 X81.676 Y93.250 E106.33325
G1 X81.676 Y92.513 E106.35501
G1 X97.163 Y77.026 E107.00132
G1 X96.425 Y77.026 E107.02309
G1 X81.676 Y91.775 E107.63862
G1 X81.676 Y91.038 E107.66038
G1 X95.688 Y77.026 E108.24514
G1 X94.950 Y77.026 E108.26690
G1 X81.676 Y90.300 E108.82088
G1 X81.676 Y89.563 E108.84264
G1 X94.213 Y77.026 E109.36584
G1 X93.475 Y77.026 E109.38761
G1 X81.676 Y88.825 E109.88003
G1 X81.676 Y88.088 E109.90179
G1 X92.738 Y77.026 E110.36344
G1 X92.000 Y77.026 E110.38521
G1 X81.676 Y87.350 E110.81608
G1 X81.676 Y86.613 E110.83784
G1 X91.263 Y77.026 E111.23794
G1 X90.525 Y77.026 E111.25970
G1 X81.676 Y85.875 E111.62902
G1 X81.676 Y85.138 E111.65078
G1 X89.788 Y77.026 E111.98933
G1 X89.050 Y77.026 E112.01109
G1 X81.676 Y84.400 E112.31886
G1 X81.676 Y83.663 E112.34062
G1 X88.313 Y77.026 E112.61761
G1 X87.576 Y77.026 E112.63937
G1 X81.676 Y82.926 E112.88559
G1 X81.676 Y82.188 E112.90735
G1 X86.838 Y77.026 E113.12279
G1 X86.101 Y77.026 E113.14455
G1 X81.676 Y81.451 E113.32921
G1 X81.676 Y80.713 E113.35097
G1 X85.363 Y77.026 E113.50486
G1 X84.626 Y77.026 E113.52662
G1 X81.676 Y79.976 E113.64973
G1 X81.676 Y79.238 E113.67149
G1 X83.888 Y77.026 E113.76382
G1 X83.151 Y77.026 E113.78558
G1 X81.676 Y78.501 E113.84714
G1 X81.676 Y77.763 E113.86890
G1 X82.413 Y77.026 E113.89968
G1 F1800.000 E112.89968
